X: 2143
T: the LADS OF TAIN
C: J.K.CLARKE
Q: "Strathspey."
R: Strathspey.
%R: strathspey
B: James Kerr "Merry Melodies" v.2 p.17 #143
Z: 2016 John Chambers <jc:trillian.mit.edu>
M: C
L: 1/8
K: D
uB |\
vA<FF>uA vB<GG>uB | vA<FF>uA vd>uAB<d |\
A<FF>A B<GG>B | vd>uA G/F/E/D/ C<EE ::\
uc |\
vd<f e>uf vd>vAuF>uA |
vd>uf g/f/e/d/ c<ee>uf |\
[1 vd<fe>uf vd>vAuF>uA | vG>uE G/F/E/D/ C<EE :|\
[2 (3fed (3edc (3dcB (3AGF | vG>uE G/F/E/D/ C<EE |]
